svg/set/ALA/C.svg

<?xml version="1.0" encoding="UTF-8" standalone="no"?>
<svg xmlns="http://www.w3.org/2000/svg" version="1.1" width="600" height="652.91907">
  <path d="M 558.36008,469.15501 600,316.51885 557.98466,183.43762 300,0 42.015344,183.43762 0,316.51885 41.574623,469.15501 300,652.91909 558.36008,469.15501 z" style="fill:#ffffff"/>
  <path d="m 236.81375,76.19566 -94.82017,70.71113 0,359.04021 94.82017,70.71114 -37.93459,-63.82284 0,-372.8168 37.93459,-63.82284 z m -139.071762,95.45677 0,309.63055 L 59.872681,455.96605 21.938082,316.95957 59.872681,196.90407 97.741988,171.65243 z m 265.444262,405.00571 94.82017,-70.71114 0,-359.04021 -94.82017,-70.71113 37.8693,63.82284 0,372.8168 -37.8693,63.82284 z M 300,613.95614 l 56.86925,-113.7385 0,-347.56516 L 300,38.89765 l -56.86925,113.75483 0,347.56516 L 300,613.95614 z m 202.19272,-132.67316 0,-309.63055 37.9346,25.25164 37.86931,120.0555 -37.86931,139.00648 -37.9346,25.31693 z"/>
</svg>

<?xml version="1.0" encoding="UTF-8" standalone="no"?>
<svg
   version="1.1"
   width="600"
   height="652.91907"
   id="svg2"
   xmlns="http://www.w3.org/2000/svg"
   xmlns:svg="http://www.w3.org/2000/svg">
  <defs
     id="defs2" />
  <path
     d="M 558.36008,469.15501 600,316.51885 557.98466,183.43762 300,0 42.015344,183.43762 0,316.51885 41.574623,469.15501 300,652.91909 Z"
     style="fill:#ffffff"
     id="path1" />
  <path
     d="m 236.81375,76.19566 -94.82017,70.71113 V 505.947 l 94.82017,70.71114 -37.93459,-63.82284 V 140.0185 Z M 97.741988,171.65243 V 481.28298 L 59.872681,455.96605 21.938082,316.95957 59.872681,196.90407 Z M 363.18625,576.65814 458.00642,505.947 V 146.90679 l -94.82017,-70.71113 37.8693,63.82284 V 512.8353 Z M 300,613.95614 356.86925,500.21764 V 152.65248 L 300,38.89765 243.13075,152.65248 V 500.21764 Z M 502.19272,481.28298 V 171.65243 l 37.9346,25.25164 37.86931,120.0555 -37.86931,139.00648 z"
     id="path2" />
</svg>
